X: 18
T: Fig Leaf Rag
C: Scott Joplin
%%abc-version 2.0
%%abcx-abcm2ps-target-version 5.9.1 (29 Sep 2008)
%%abc-creator hum2abc beta
%%abcx-conversion-date 2021/07/20 09:00:57
%%abc-copyright 2021 Craig Stuart Sapp
%%abc-edited-by Craig Stuart Sapp
%%abc-edited-by Craig Stuart Sapp
%%abcx-initial-encoding-date 2004/11/28
%%humdrum-veritas 3553967045
%%humdrum-veritas-data 2248815915
%%removed 0's from note length
%%linebreak <none>
%%barnumbers 0
L: 1/16
M: 2/4
N: Derived from figleaf.krn
Q: "Slow March Tempo [quarter]=100" 1/4=100
%%staves {1 2}
V: 1 clef=treble
V: 2 clef=bass
K: Bb
[V:1] G_GFB- BAB2 | 
[V:2] G,_G,F,B,- B,A,B,2 | 
[V:1] c_cBd- d^cd2 | 
[V:2] C_CB,D- D^CD2 | 
[V:1] f^cdA BG2_G | 
[V:2] F^CDA, B,G,2_G, | 
[V:1] F2 z2!accent![f4c4A4F4] ]|:  
[V:2] F,2 z2!accent![F,4F,,4] ]|:  
[V:1] FBdf- fBcd | 
[V:2] [B,2B,,2][D2B,2F,2] D,2[D2B,2F,2] | 
[V:1] ABGF- F^FG^G | 
[V:2] E,2[E2B,2G,2] [D2D,2][_D2_D,2] | 
[V:1] Aceg- g_gf2 & A2>[e2A2]-[e4A4] | 
[V:2] [C2C,2][E2A,2F,2] [F,2F,,2][E2A,2F,2] | 
[V:1] Bdfg- g_gf2 & B2>[d2B2]-[d4B4] | 
[V:2] [B,2B,,2][D2B,2F,2] [F,2F,,2][D2B,2F,2] | 
[V:1] FBdf- fBcd | 
[V:2] B,,2[D2B,2F,2] D,2[D2B,2F,2] | 
[V:1] ABGF- FG^Gd & x4F2F2 | 
[V:2] E,2[E2B,2G,2] [D2D,2][=B,2=B,,2] | 
[V:1] Acfd- dgca & F2>B2-B4 | 
[V:2] [C2C,2][C2A,2] C,2[=E2C2B,2] | 
[V:1] [f2A2]_ec A_AG_G | 
[V:2] [F2C2A,2F,2] z2[_E4C4A,4F,4] | 
[V:1] FBdf- fBcd | 
[V:2] B,,2[D2B,2F,2] D,2[D2B,2F,2] | 
[V:1] ABGF- F^FG^G | 
[V:2] E,2[E2B,2G,2] [D2D,2][_D2_D,2] | 
[V:1] Aceg- g_gf2 & A2>[e2A2]-[e4A4] | 
[V:2] [C2C,2][E2A,2F,2] F,,2[E2A,2F,2] | 
[V:1] Bdfg- g_gf2 & B2>[d2B2]- [d2B2][d2_A2] | 
[V:2] [B,2B,,2][D2B,2F,2] [B,2B,,2][=B,2=B,,2] | 
[V:1] fe2c'- [c'2g2e2c2][e'2b2e2] & [c2G2]>[g2e2c2]-x4 | 
[V:2] [C2C,2][E2C2G,2] [E,2E,,2][_G,2_G,,2] | 
[V:1] [d'bd][b2d2B2][g=BG]- gfd2 & x4[B2G2][B2F2] | 
[V:2] [F,2F,,2][D2B,2F,2] [G,2G,,2][=B,2G,2] | 
[V:1] dc2f- fdc2 & [_B2=E2]>[A2F2]- [A2F2][A2_E2] |[1 
[V:2] C,2[C2_B,2G,2] F,,2[A,2F,2] | 
[V:1] [B4D4][F4_E4] :|][2 
[V:2] B,4F,^F,G,A, & B,,D,E,=E,F,4 :|]  
[V:1] [B4D4]-[B2D2][f2F2] ]|: 
[V:2] [B,2B,,2]F,2 B,,2 z2 ]|:  
[V:1] [af][bg][c'a][af] [ec][g2e2][fd]- | 
[V:2] [C2C,2][E2A,2F,2] F,,2[E2A,2F,2] | 
[V:1] [fd][=e^c][fd][dB]- [d2B2]F2 | 
[V:2] B,,2[D2B,2F,2] F,,2[D2B,2F,2] | 
[V:1] [cA][dB][ec][cA] GA2G- & x4E3^C- | 
[V:2] F,,2[E2A,2F,2] F,,2[A,2F,2] | 
[V:1] [G4C4][F2D2][f2F2] | 
[V:2] B,,^C,=E,G, B,2 z2 | 
[V:1] [af][bg][c'a][af] [ec][g2e2][fd]- | 
[V:2] C,2[E2A,2F,2] F,,2[E2A,2F,2] | 
[V:1] [fd][=e^c][fd][dB]- [dB]bc'^c' | 
[V:2] B,,2[D2B,2F,2] F2E2[K:clef=treble] | 
[V:1] d'=e'^f'd'' c''b'a'd'' | 
[V:2] [c4A4^F4D4][^f2d2c2A2][a2f2d2c2] | 
[V:1] g'2[gG][_g_G] [f2F2]f2 | 
[V:2] [g2d2B2][K:clef=bass][G,G,,][_G,_G,,] [F,2F,,2] z2 | 
[V:1] [af][bg][c'a][af] [ec][g2e2][fd]- | 
[V:2] [C2C,2][E2A,2F,2] F,,2[E2A,2F,2] | 
[V:1] [fd][=e^c][fd][dB]- [d2B2]F2 | 
[V:2] B,,2[D2B,2F,2] F,,2[D2B,2F,2] | 
[V:1] [cA][dB][ec][cA] GA2G & x4C^C3 | 
[V:2] [A,4F,4][A,4E,4] | 
[V:1] [^F4D4]-[F2D2]D2 | 
[V:2] A,4-A,2 D,2 & D,2{/^G,,}A,,2D,,2 D,2 | 
[V:1] EFGB- Bcd2 | 
[V:2] C,D,E,G,- G,_G,F,2 | 
[V:1] efgb- bc'd'2 | 
[V:2] CDEG- G_GF2 | 
[V:1] [dF][B2D2][cAE]- cdc2 & x4[A2E2][A2E2] |[1 
[V:2] F,,2[B,2F,2] F,,2[A,2F,2] | 
[V:1] [B2F2D2]ff [g2f2][^g2f2] :|][2 
[V:2] [B,2B,,2] z2 [B,2B,,2][=B,2=B,,2] :|]  
[V:1] [B4F4D4][F4_E4] || 
[V:2] B,4F,^F,G,A, & B,,D,E,=E,F,4 ||  
[V:1] FBdf- fBcd | 
[V:2] [B,2B,,2][D2B,2F,2] D,2[D2B,2F,2] | 
[V:1] ABGF- F^FG^G | 
[V:2] E,2[E2B,2G,2] [D2D,2][_D2_D,2] | 
[V:1] Aceg- g_gf2 & A2>[e2A2]-[e4A4] | 
[V:2] [C2C,2][E2A,2F,2] [F,2F,,2][E2A,2F,2] | 
[V:1] Bdfg- g_gf2 & B2>[d2B2]-[d4B4] | 
[V:2] [B,2B,,2][D2B,2F,2] [F,2F,,2][D2B,2F,2] | 
[V:1] FBdf- fBcd | 
[V:2] B,,2[D2B,2F,2] D,2[D2B,2F,2] | 
[V:1] ABGF- FG^Gd & x4F2F2 | 
[V:2] E,2[E2B,2G,2] [D2D,2][=B,2=B,,2] | 
[V:1] Acfd- dgca & F2>B2-B4 | 
[V:2] [C2C,2][C2A,2] C,2[=E2C2B,2] | 
[V:1] [f2c2]_ec A_AG_G | 
[V:2] [F2C2A,2F,2] z2[_E4C4A,4F,4] | 
[V:1] FBdf- fBcd | 
[V:2] B,,2[D2B,2F,2] D,2[D2B,2F,2] | 
[V:1] ABGF- F^FG^G | 
[V:2] E,2[E2B,2G,2] [D2D,2][_D2_D,2] | 
[V:1] Aceg- g_gf2 & A2>[e2A2]-[e4A4] | 
[V:2] [C2C,2][E2A,2F,2] [F,2F,,2][E2A,2F,2] | 
[V:1] Bdfg- g_gf2 & B2>[d2B2]- [d2B2][d2_A2] | 
[V:2] [B,2B,,2][D2B,2F,2] [B,2B,,2][=B,2=B,,2] | 
[V:1] fe2c'- [c'2g2e2c2][e'2b2e2] & [c2G2]>[g2e2c2]-x4 | 
[V:2] [C2C,2][E2C2G,2] [E,2E,,2][_G,2_G,,2] | 
[V:1] x4gfd2 & [d'bd][b2d2B2][g-=BG-] [B2G2][B2F2] | 
[V:2] [F,2F,,2][D2B,2F,2] [G,2G,,2][=B,2G,2] | 
[V:1] dc2f- fdc2 & [_B2=E2]>[A2F2]- [A2F2][A2_E2] | 
[V:2] C,2[C2_B,2G,2] F,,2[A,2F,2] | 
[V:1] [B4F4D4][b2f2d2B2] z2 ]|:  
[V:2] [B,2B,,2]F,2 B,,2 z2 ]|:  
[V:1]  [K:Eb] [dGD][eGE][cGEC][BGEB,]- [BGEB,][^f=A^F][gBG][bB] | 
[V:2]  [K:Eb] [E,2E,,2]G,,2B,,2E,2 | 
[V:1] [d'gd][e'ge][c'gec][bgeB]- [bgeB][^f'=a^f][g'bg][=f'_a=f]- | 
[V:2] [E,2E,,2]G,2B,2E2 | 
[V:1] [f'af][e'e][c'c][e'e]- [e'e][fF][^f^F][gG]- | 
[V:2] [A,2A,,2][F2E2C2A,2] [A,2A,,2][=A,2=A,,2] | 
[V:1] g[eB]^f2[=f4d4=F4] & G2[e2c2^F2] B2A2 | 
[V:2] [B,2B,,2][=A,2=A,,2] [_A,2_A,,2][B,,2B,,,2] | 
[V:1] [dGD][eGE][cGEC][BGEB,]- [BGEB,][^f=A^F][gBG][bB] | 
[V:2] [E,2E,,2]G,,2B,,2E,2 | 
[V:1] [d'gd][e'ge][c'gec][bgeB]- [b2g2e2B2][c'2b2g2c2] | 
[V:2] [E,2E,,2]G,2B,2[E2E,2] | 
[V:1] [d'bgd][g'g][b'b][d''d'] [e''e'][^g'^g][=a'=a][d''d'] | 
[V:2] [D2D,2][G2D2B,2] [^F,2^F,,2][^F2D2C2] | 
[V:1] [g'g]d'bg d2[d2_A2D2] | 
[V:2] [G,2G,,2][G2D2B,2]- [G2D2B,2][B,2B,,2] | 
[V:1] [dGD][eGE][cGEC][BGEB,]- [BGEB,][^f=A^F][gBG][bB] | 
[V:2] [E,2E,,2]G,,2B,,2E,2 | 
[V:1] [d'gd][e'ge][c'gec][bgeB]- [bgeB][^f'=a^f][g'bg][b'b]- | 
[V:2] [E,2E,,2]G,2B,2E2 | 
[V:1] [b'b][g'g][=e'=e][_d'_d]- [d'd][c'c][=b=B][c'c]- | 
[V:2] [=E,2=E,,2][=E2C2B,2] [C,2C,,2][E2C2B,2] | 
[V:1] [c'c][_d'_d][c'c][=b=B][c'4c4] | 
[V:2] [F,2F,,2][F2C2A,2] [A,2A,,2][F2C2A,2][K:clef=treble] | 
[V:1] _g'd'e'c'[=a4_g4e4c4] | 
[V:2] [_g2e2c2=A2] z2 _GDEC[K:clef=bass] | 
[V:1] _gdec[=A4E4C4] | 
[V:2] [_G2E2C2=A,2] z2_G,4 | 
[V:1] [BEB,][c2E2C2][B-=EC-] B_AG2 & x4[E2C2][E2B,2] |[1 
[V:2] G,4C,4 | 
[V:1] GEF2 [E2B,2G,2]B2 & [E2=A,2][D2_A,2]x4 :|][2 
[V:2] [C,2C,,2][B,,2B,,,2] [E,2E,,2] z2 :|]  
[V:1] GEF2 [E2B,2G,2] z2 & [E2=A,2][D2_A,2]x4 ]|: 
[V:2] [C,2C,,2][B,,2B,,,2] [E,2E,,2]!accent![B,,2B,,,2] ]|:  
[V:1] {/c^c} d2[bfdB][=a=A] [bfdB][aA][bfdB][aA] | 
[V:2] [F,2F,,2][D2B,2A,2] [B,,2B,,,2][D2B,2A,2] | 
[V:1] [bfdB][c'2c2][bfdB]-[b4f4d4B4] | 
[V:2] [F,2F,,2][D2B,2A,2] [F,F,,][B,B,,][=A,=A,,][_A,_A,,] | 
[V:1] {/cd} e2[bgeB][=a=A] [bgeB][aA][bgeB][aA] | 
[V:2] [G,2G,,2][E2B,2G,2] [E,2E,,2][E2B,2G,2] | 
[V:1] [bgeB][c'2c2][bgeB]-[b4g4e4B4] | 
[V:2] [G,2G,,2][E2B,2G,2] [E,E,,][D,D,,][E,E,,][F,F,,] | 
[V:1] {/a=a} b2[b_dB][a=A] [bdB][_d'_fd][_c'e_c][bdB] | 
[V:2] [_G,2_G,,2][_D2B,2G,2] [=G,2=G,,2][D2B,2G,2E,2] | 
[V:1] [b_dB][_a2_c2_A2][aecA]-[a4e4c4A4] | 
[V:2] [_A,2_A,,2][_C2A,2E,2] [_C,_C,,][=C,=C,,][_D,_D,,][=D,=D,,] | 
[V:1] {/EF} _G2[_geG][aA] [=afe=A][^g^G][a2f2e2A2] | 
[V:2] [E,2E,,2][E2B,2_G,2][_C,4_C,,4] | 
[V:1] [b2f2d2B2][bB][bB] [b2B2] z2 | 
[V:2] [B,,2B,,,2] z2 z2 !accent![B,,2B,,,2] | 
[V:1] {/c^c} d2[bfdB][=a=A] [bfdB][aA][bfdB][aA] | 
[V:2] [F,2F,,2][D2B,2A,2] [B,,2B,,,2][D2B,2A,2] | 
[V:1] [bfdB][c'2c2][bfdB]-[b4f4d4B4] | 
[V:2] [F,2F,,2][D2B,2A,2] [F,F,,][B,B,,][=A,=A,,][_A,_A,,] | 
[V:1] {/cd} e2[bgeB][=a=A] [bgeB][aA][bgeB][aA] | 
[V:2] [G,2G,,2][E2B,2G,2] [E,2E,,2][E2B,2G,2] | 
[V:1] [bgeB][c'2c2][bgeB]- [b2g2e2B2][_A2D2B,2] | 
[V:2] [G,2G,,2][E2B,2G,2] [E2B,2G,2][B,,2B,,,2] | 
[V:1] [GEB,][G2E2B,2][GF=B,]- [G2F2B,2][G2F2_B,2] | 
[V:2] [E,E,,][E,2E,,2][D,D,,]- [D,2D,,2][_D,2_D,,2] | 
[V:1] [G2=E2B,2][G2E2B,2] GF3 & x4[_E4=A,4] | 
[V:2] [C,2C,,2][C,2C,,2][C,4C,,4] | 
[V:1] [FE_A,][F2E2A,2][FDA,]- [F2D2A,2]B2 |[1 
[V:2] [_C,_C,,][C,2C,,2][B,,B,,,]-[B,,4B,,,4] | 
[V:1] [E2B,2G,2]!accent!B!accent!B !accent!B2 z2 :|][2 
[V:2] [E,2E,,2] z2 z2 !accent![B,,2B,,,2] :|]  
[V:1] [E4B,4G,4][e2B2G2E2] z2 |]  
[V:2] [E,2E,,2]B,,2 E,,2 z2 |]  


